public/illustrations/_gel.svg

<svg width="128" height="197" viewBox="0 0 128 197" fill="none" xmlns="http://www.w3.org/2000/svg">
<path d="M37.461 59.8221C38.1264 47.3342 38.7494 35.1152 39.3865 22.8963C39.7122 17.6577 39.9105 12.3909 40.3777 7.16633C40.845 1.94181 42.6571 0.341667 47.6835 0.21424C56.1503 0.0160195 64.6031 -0.0545938 73.1691 0.0445164C77.8697 0.157785 79.7387 2.14004 80.4891 6.82654C80.7015 8.28487 80.7581 9.87054 80.9847 11.3289C80.9705 11.4705 81.2254 11.6544 81.7068 12.2916C82.8819 12.0367 84.227 11.6545 85.5721 11.2722C101.232 7.81749 114.923 11.088 125.514 23.9299C128.572 27.5262 128.529 29.8059 125.953 33.7279C124.65 35.8233 123.22 37.7628 121.917 39.8725C117.684 46.4137 114.895 46.867 108.863 42.1238C105.55 39.3487 101.486 37.763 97.2246 37.579C91.8443 37.225 87.2711 39.1363 82.5562 42.0388C82.7828 47.3624 83.0519 52.4172 83.1793 57.4435C83.6749 57.9391 84.1987 58.307 84.8641 58.6893C95.2707 63.9138 102.52 72.126 108.537 81.8671C114.526 91.8914 118.788 102.949 121.28 114.333C123.984 126.311 125.641 138.572 125.995 150.919C126.547 162.868 126.83 174.79 127.241 186.725C127.255 187.589 127.283 188.453 127.142 189.43C126.675 193.649 124.99 195.419 120.686 195.504C115.518 195.617 110.35 195.716 105.21 195.688L64.504 196.226L12.0603 196.778C11.225 196.651 10.2197 196.651 9.35605 196.679C2.61653 195.844 0.266163 193.21 0.124577 186.329C-0.512563 166.068 1.42715 145.75 2.92796 125.504C3.83412 114.333 6.14202 103.36 9.96486 92.755C14.4107 79.814 22.2263 69.3507 34.1337 62.2148C35.3797 61.5352 36.4981 60.7 37.7582 59.8788L37.4751 59.8362L37.461 59.8221ZM116.481 184.871C116.396 178.57 116.764 173.034 116.296 167.385C115.546 155.831 114.64 144.25 113.451 132.781C111.511 114.616 106.711 97.3281 95.9221 82.0226C86.6624 68.9543 73.9903 62.5405 58.1326 64.3811C40.0803 66.4907 27.3374 76.5152 20.5696 93.5621C17.2282 101.802 14.9911 110.354 13.9859 119.217C13.108 127.245 12.5134 135.316 11.7771 143.358C10.5028 156.044 9.92238 168.985 10.2197 181.756C10.3188 183.058 10.5312 184.517 10.6161 185.961L116.367 184.843H116.509L116.481 184.871ZM71.9798 53.6629C71.8665 50.5056 71.8098 46.9092 71.7674 43.3271C71.7249 39.745 71.286 35.8232 71.0878 32.2128C70.9179 28.4749 70.847 25.02 70.5072 21.3954C70.1533 17.9124 70.8612 14.0048 69.502 10.5217L52.186 10.5926C51.9028 10.5501 51.4497 10.7767 51.1241 11.0174C50.0905 15.1659 48.4197 52.4031 49.0852 54.6401L72.1071 53.6913H71.9656L71.9798 53.6629ZM113.847 32.2695C114.427 31.2076 115.008 30.1456 115.56 29.3669C108.353 19.8807 90.655 17.601 81.2961 24.9634L81.7635 29.6075C99.1928 25.8413 101.147 26.1244 113.833 32.3967V32.2553L113.847 32.2695Z" fill="#102185"/>
<path d="M65.198 162.556C64.6883 166.053 62.8618 167.795 60.3982 168.007C59.0956 168.106 57.8781 167.639 56.972 166.945C56.0658 166.251 55.4003 165.005 55.1313 163.816C54.8764 161.636 54.6216 159.455 54.6499 157.303C53.8853 149.757 53.4039 142.238 52.4978 134.678C51.7049 128.264 48.3493 123.776 41.5673 122.218C40.3072 122.034 39.1037 121.425 38.0418 120.845C37.2348 120.448 36.4843 119.755 36.0171 118.976C35.5498 118.197 35.2666 117.291 35.2666 116.286C35.2525 115.422 35.5358 114.459 35.9322 113.666C36.3287 112.859 37.0224 112.109 37.8011 111.642C38.9054 110.948 39.9815 110.382 41.3124 110.141C49.0289 108.258 52.7952 102.934 54.1827 95.4159C54.5933 92.6125 54.8482 89.7949 54.8482 86.9207C55.0322 84.6553 54.7915 82.3334 55.1454 79.9548C55.3012 78.8363 55.7685 77.6187 56.4481 76.8541C57.2976 75.9763 58.232 75.3959 59.4214 75.141C60.4691 74.8578 61.7293 75.0417 62.6496 75.608C63.5841 76.0328 64.476 76.8683 64.8866 77.9302C65.7644 79.7708 66.3449 81.7245 66.6139 83.7634C67.2227 88.4357 68.5537 93.0515 70.9465 97.2707C73.6792 102.099 77.9975 105.879 83.123 108.046C84.6238 108.555 85.9689 109.178 87.2857 109.943C88.0927 110.339 88.843 111.033 89.3103 111.812C89.7775 112.59 90.2023 113.511 90.2023 114.516C90.2164 115.379 90.0748 116.356 89.7916 117.319C89.3952 118.126 88.843 118.905 88.0501 119.5C86.7617 120.462 85.2043 121.383 83.6752 122.02C71.1731 127.358 64.0513 141.927 65.0848 153.523C65.3397 156.708 65.1556 159.965 65.0707 162.528H65.2122L65.198 162.556ZM62.6638 105.1L54.4658 116.215C56.8445 119.571 59.3222 123.209 61.6867 126.565L73.0278 115.479L62.7911 105.129H62.6496L62.6638 105.1Z" fill="#102185"/>
</svg>

<svg xmlns="http://www.w3.org/2000/svg" width="128" height="197" fill="none" viewBox="0 0 128 197"><path fill="#102185" d="M37.461 59.822c.665-12.488 1.288-24.707 1.925-36.926.326-5.238.524-10.505.992-15.73S42.658.342 47.684.214c8.466-.198 16.92-.269 25.485-.17 4.7.114 6.57 2.096 7.32 6.783.212 1.458.27 3.044.496 4.502-.014.141.24.325.722.963 1.175-.255 2.52-.637 3.865-1.02 15.66-3.455 29.351-.184 39.942 12.658 3.058 3.596 3.015 5.876.439 9.798-1.303 2.095-2.733 4.035-4.036 6.145-4.233 6.54-7.022 6.994-13.054 2.25-3.313-2.774-7.377-4.36-11.638-4.544-5.38-.354-9.954 1.557-14.669 4.46.227 5.323.496 10.378.623 15.404.496.496 1.02.864 1.685 1.246 10.407 5.225 17.656 13.437 23.673 23.178 5.989 10.024 10.251 21.082 12.743 32.466 2.704 11.978 4.361 24.239 4.715 36.586.552 11.949.835 23.871 1.246 35.806.014.864.042 1.728-.099 2.705-.467 4.219-2.152 5.989-6.456 6.074-5.168.113-10.336.212-15.476.184l-40.706.538-52.444.552c-.835-.127-1.84-.127-2.704-.099-6.74-.835-9.09-3.469-9.231-10.35-.638-20.261 1.302-40.579 2.803-60.825.906-11.171 3.214-22.144 7.037-32.749 4.446-12.941 12.261-23.404 24.169-30.54 1.246-.68 2.364-1.515 3.624-2.336l-.283-.043zm79.02 125.049c-.085-6.301.283-11.837-.185-17.486-.75-11.554-1.656-23.135-2.845-34.604-1.94-18.165-6.74-35.453-17.529-50.758-9.26-13.069-21.932-19.482-37.79-17.642-18.052 2.11-30.795 12.134-37.562 29.181-3.342 8.24-5.579 16.792-6.584 25.655-.878 8.028-1.473 16.099-2.209 24.141-1.274 12.686-1.855 25.627-1.557 38.398.099 1.302.311 2.761.396 4.205l105.751-1.118h.142zM71.98 53.663c-.114-3.157-.17-6.754-.213-10.336s-.481-7.504-.68-11.114c-.17-3.738-.24-7.193-.58-10.818-.354-3.483.354-7.39-1.005-10.873l-17.316.07c-.283-.042-.736.185-1.062.425-1.034 4.149-2.704 41.386-2.039 43.623l23.022-.949h-.141zm41.867-21.393c.58-1.062 1.161-2.124 1.713-2.903-7.207-9.486-24.905-11.766-34.264-4.404l.467 4.645c17.43-3.767 19.384-3.484 32.07 2.789v-.142z"/><path fill="#102185" d="M65.198 162.556c-.51 3.497-2.336 5.239-4.8 5.451-1.302.099-2.52-.368-3.426-1.062s-1.572-1.94-1.84-3.129c-.256-2.18-.51-4.361-.482-6.513-.765-7.546-1.246-15.065-2.152-22.625-.793-6.414-4.149-10.902-10.93-12.46-1.26-.184-2.464-.793-3.526-1.373a5.05 5.05 0 0 1-2.025-1.869 5.2 5.2 0 0 1-.75-2.69c-.015-.864.269-1.827.665-2.62a5.04 5.04 0 0 1 1.87-2.024c1.103-.694 2.18-1.26 3.51-1.501 7.717-1.883 11.483-7.207 12.87-14.725.411-2.803.666-5.621.666-8.495.184-2.266-.056-4.588.297-6.966.156-1.119.624-2.336 1.303-3.1.85-.879 1.784-1.46 2.973-1.714 1.048-.283 2.308-.1 3.229.467.934.425 1.826 1.26 2.237 2.322a19.4 19.4 0 0 1 1.727 5.833c.609 4.673 1.94 9.289 4.332 13.508 2.733 4.828 7.052 8.608 12.177 10.775 1.5.509 2.846 1.132 4.163 1.897a5.04 5.04 0 0 1 2.024 1.869c.468.778.892 1.699.892 2.704.014.863-.127 1.84-.41 2.803-.397.807-.949 1.586-1.742 2.181-1.288.962-2.846 1.883-4.375 2.52-12.502 5.338-19.624 19.907-18.59 31.503.255 3.185.07 6.442-.014 9.005h.141zM62.664 105.1l-8.198 11.115c2.378 3.356 4.856 6.994 7.22 10.35l11.342-11.086-10.237-10.35h-.141z"/></svg>
